!!!COM: Music21
!!!OTL: Jota da Carcacía
!!!OMV: pezas_jotas_jota-da-carcacia_jota-da-carcacia-partitura.musicxml
**kern
*I"Bagpipes
*I'Bag
*clefG^2
*k[]
*M3/4
*MM200
=1
!LO:TX:a:t=[quarter]=200
4r
8ccL
8eeJ
8ccL
8eeJ
=||
8ggL
8eeJ
8ccL
8eeJ
8ccL
8eeJ
=
8ggL
8eeJ
8ccL
8eeJ
8ccL
8eeJ
=
8ggL
8eeJ
8ccL
8eeJ
8ccL
8eeJ
=
4dd
8bL
8ddJ
8bL
8ddJ
=
8ffL
8ddJ
8bL
8ddJ
8bL
8ddJ
=
8ffL
8ddJ
8bL
8ddJ
8bL
8ddJ
!!linebreak:original
=
8ggL
8aaJ
8ggL
8ffJ
8eeL
8ddJ
=
4ee
8ccL
8eeJ
8ccL
8eeJ
=||
8ggL
8eeJ
8ccL
8eeJ
8ccL
8eeJ
=
8ggL
8eeJ
8ccL
8eeJ
8ccL
8eeJ
=
8ggL
8eeJ
8ccL
8eeJ
8ccL
8eeJ
=
4dd
8bL
8ddJ
8bL
8ddJ
=
8ffL
8ddJ
8bL
8ddJ
8bL
8ddJ
=
8ffL
8ddJ
8bL
8ddJ
8bL
8ddJ
!!linebreak:original
=
8ggL
8aaJ
8ggL
8ffJ
8eeL
8ddJ
=
[2.cc
=
4cc]
4dd
4cc
=
2b
4cc
=
2dd
4ee
=
4.ee
8dd
[4cc
=
4cc]
4ee
4dd
=||
2cc
4dd
=
2ee
4ff
=
4.ff
8ee
[4dd
!!linebreak:original
=
4dd]
4dd
4cc
=
2b
4cc
=
2dd
4ee
=
4.ee
8dd
[4cc
=
4cc]
4ee
4dd
=||
2cc
4dd
=
2ee
4ff
=
4.ff
8ee
[4dd
=
4dd]
4dd
4cc
=
2b
4cc
=
2dd
4ee
=
4.ee
8dd
[4cc
!!linebreak:original
=
4cc]
4ee
4dd
=||
2cc
4dd
=
2ee
4ff
=
4.ff
8ee
[4dd
=
4dd]
4dd
4cc
=
2b
4cc
=
2dd
4ee
=
4.ee
8dd
[4cc
=
2.cc_
=
4cc]
8ccL
8eeJ
8ccL
8eeJ
=||
8ggL
8eeJ
8ccL
8eeJ
8ccL
8eeJ
!!linebreak:original
=
8ggL
8eeJ
8ccL
8eeJ
8ccL
8eeJ
=
8ggL
8eeJ
8ccL
8eeJ
8ccL
8eeJ
=
4dd
8bL
8ddJ
8bL
8ddJ
!!linebreak:original
=
8ffL
8ddJ
8bL
8ddJ
8bL
8ddJ
=
8ffL
8ddJ
8bL
8ddJ
8bL
8ddJ
=
8ggL
8aaJ
8ggL
8ffJ
8eeL
8ddJ
=
4ee
8ccL
8eeJ
8ccL
8eeJ
=||
8ggL
8eeJ
8ccL
8eeJ
8ccL
8eeJ
=
8ggL
8eeJ
8ccL
8eeJ
8ccL
8eeJ
=
8ggL
8eeJ
8ccL
8eeJ
8ccL
8eeJ
=
4dd
8bL
8ddJ
8bL
8ddJ
!!linebreak:original
=
8ffL
8ddJ
8bL
8ddJ
8bL
8ddJ
=
8ffL
8ddJ
8bL
8ddJ
8bL
8ddJ
=
8ggL
8aaJ
8ggL
8ffJ
8eeL
8ddJ
=
[2.cc
=
2cc]
4b
=
4cc
4cc
4dd
=
2ee
4ff
=
4gg
4ee
4cc
=
2dd
4b
!!linebreak:original
=
4b
4b
4cc
=
2dd
4ee
=
4ff
4dd
4b
=
2cc
4cc
=||
4cc
4cc
4dd
=
2ee
4ff
=
4gg
4ee
4cc
=
4dd
4cc
4b
=
4b
4b
4cc
=
2dd
4ee
=
4ff
4dd
4b
=
2cc
4cc
!!linebreak:original
=||
4cc
4cc
4dd
=
2ee
4ff
=
4gg
4ee
4cc
=
4dd
4cc
4b
=
4b
4b
4cc
=
2dd
4ee
!!linebreak:original
=
4ff
4dd
4b
=||
[2.cc
=
4cc]
8ccL
8eeJ
8ccL
8eeJ
=||
[2.cc
=
4cc]
==
*-
